public/images/playstore.svg

<svg width="187" height="55" viewBox="0 0 187 55" fill="none" xmlns="http://www.w3.org/2000/svg">
    <rect width="186.154" height="55" rx="5.77979" fill="white"/>
    <path fill-rule="evenodd" clip-rule="evenodd" d="M103.154 13.7744C103.154 16.2642 101.137 18.2826 98.6476 18.2826C96.1586 18.2826 94.1409 16.2642 94.1409 13.7744C94.1409 11.2845 96.1586 9.26611 98.6476 9.26611C101.137 9.26611 103.154 11.2845 103.154 13.7744ZM101.778 13.7743C101.778 15.5033 100.377 16.905 98.6481 16.905C96.9196 16.905 95.5184 15.5033 95.5184 13.7743C95.5184 12.0452 96.9196 10.6435 98.6481 10.6435C100.377 10.6435 101.778 12.0452 101.778 13.7743Z" fill="#151917"/>
    <path fill-rule="evenodd" clip-rule="evenodd" d="M71.7326 9.64209H66.7251V9.76661H66.7245V13.2733V14.2751V17.0305V18.0317V18.0323H71.732V17.0305H68.102V14.2751H71.3564V13.2733H68.102V10.6439H71.7326V9.64209Z" fill="#151917"/>
    <path fill-rule="evenodd" clip-rule="evenodd" d="M78.7433 9.64209H73.1099V10.6439H75.2387V18.0325H76.6162V10.6439H78.7433V9.64209Z" fill="#151917"/>
    <path fill-rule="evenodd" clip-rule="evenodd" d="M91.0116 9.64209H85.3782V10.6439H87.5073V18.0325H88.8848V10.6439H91.0116V9.64209Z" fill="#151917"/>
    <rect x="82.7484" y="9.64209" width="1.37752" height="8.39033" fill="#151917"/>
    <path fill-rule="evenodd" clip-rule="evenodd" d="M104.281 9.64209H105.659V9.64215H105.908L109.664 15.7819V9.64215H111.041V18.0325H111.041H109.664H109.664L105.659 11.486V18.0324H104.281V9.64209Z" fill="#151917"/>
    <path fill-rule="evenodd" clip-rule="evenodd" d="M61.5652 13.4204H65.3355L65.2982 14.6141H61.5652V13.4204Z" fill="#151917"/>
    <path fill-rule="evenodd" clip-rule="evenodd" d="M61.5091 18.2317C63.993 18.2541 66.0647 16.5038 65.6505 13.4641C65.6505 13.4495 65.6504 13.4349 65.6503 13.4203H64.5496C64.5586 13.5473 64.5617 13.678 64.5588 13.8122C64.5614 15.9832 63.3099 17.0015 61.5471 17.0015C59.7844 17.0015 58.3554 15.5736 58.3554 13.8122C58.3554 12.0508 59.7844 10.6229 61.5471 10.6229C62.4288 10.6229 63.193 10.9242 63.7311 11.4737L64.5939 10.6116C63.86 9.8371 62.7863 9.39111 61.5091 9.39111C59.066 9.39111 57.0854 11.3701 57.0854 13.8114C57.0854 16.2527 59.066 18.2282 61.5091 18.2317Z" fill="#151917"/>
    <path fill-rule="evenodd" clip-rule="evenodd" d="M142.3 24.6694H135.203V35.4466H142.3C142.3 35.4466 146.386 34.7512 146.386 30.058C146.386 25.3648 142.3 24.6694 142.3 24.6694ZM141.399 27.2764H136.581V33.0598H141.399C141.399 33.0598 143.591 33.0598 143.591 30.1681C143.591 27.2764 141.399 27.2764 141.399 27.2764Z" fill="#151917"/>
    <rect x="134.576" y="24.6694" width="2.50458" height="17.532" fill="#151917"/>
    <rect x="147.847" y="24.6694" width="2.50458" height="17.532" fill="#151917"/>
    <path fill-rule="evenodd" clip-rule="evenodd" d="M157.039 30.5557C153.537 30.5557 152.37 32.9623 152.37 32.9623L154.456 34.1952C154.456 34.1952 154.959 32.9623 157.239 32.9623C158.899 32.9623 159.452 34.217 159.63 34.899V35.413C158.903 35.0593 157.329 34.5024 155.082 34.8366C152.034 35.29 152.095 38.0471 152.105 38.4823L152.105 38.4823C152.105 38.5003 152.106 38.5143 152.106 38.524C152.106 38.7696 152.108 42.4111 156.097 42.1619C157.838 42.0531 158.941 41.5174 159.63 40.9482V42.1966H162.135V34.5576H162.134C162.127 33.5325 161.373 30.5557 157.039 30.5557ZM154.462 38.6038C154.629 35.8932 159.453 37.1937 159.453 37.1937C159.453 37.1937 159.517 37.4803 159.517 38.0913C159.089 40.0129 154.294 41.3145 154.462 38.6038Z" fill="#151917"/>
    <path fill-rule="evenodd" clip-rule="evenodd" d="M168.083 38.5632L164.871 30.9316H162.368L166.832 41.5375L164.496 47.0859H167L173.774 30.9921H171.27L168.083 38.5632Z" fill="#151917"/>
    <path fill-rule="evenodd" clip-rule="evenodd" d="M123.676 30.5552C127.873 30.5552 128.971 35.0291 128.971 35.0291L121.052 38.3027C121.052 38.3027 121.564 40.1134 123.945 40.1255C125.809 40.135 126.861 38.4726 126.861 38.4726L128.87 39.8336C128.87 39.8336 127.249 42.4565 123.929 42.4565C119.849 42.4565 118.052 38.8875 118.052 36.5697C118.052 34.3365 119.478 30.5552 123.676 30.5552ZM123.435 32.8652C124.963 32.5856 125.959 34.1019 125.959 34.1019L120.61 36.2861C120.61 36.2861 120.203 33.4568 123.435 32.8652Z" fill="#151917"/>
    <rect x="114.296" y="24.6694" width="2.64969" height="17.4952" fill="#151917"/>
    <path fill-rule="evenodd" clip-rule="evenodd" d="M110.057 32.0272V30.9354L112.506 30.9566V41.9955C112.506 44.8159 110.827 47.7931 106.875 47.7931C102.924 47.7931 101.647 44.2905 101.647 44.2905L103.896 43.3445C103.896 43.3445 104.582 45.5031 106.992 45.5031C109.737 45.5031 110.058 43.005 110.058 42.1498V40.9519C110.058 40.9519 109.108 42.4389 106.749 42.4389C104.191 42.4389 101.152 40.2467 101.152 36.5096C101.152 32.7724 104.014 30.6348 106.778 30.557C108.993 30.4947 110.057 32.0272 110.057 32.0272ZM110.191 36.5417C110.191 38.56 108.744 40.1962 106.958 40.1962C105.172 40.1962 103.725 38.56 103.725 36.5417C103.725 34.5233 105.172 32.8871 106.958 32.8871C108.744 32.8871 110.191 34.5233 110.191 36.5417Z" fill="#151917"/>
    <path fill-rule="evenodd" clip-rule="evenodd" d="M100.052 36.5035C100.052 39.7887 97.3833 42.4519 94.0918 42.4519C90.8003 42.4519 88.132 39.7887 88.132 36.5035C88.132 33.2184 90.8003 30.5552 94.0918 30.5552C97.3833 30.5552 100.052 33.2184 100.052 36.5035ZM97.4034 36.5043C97.4034 38.5012 95.9036 40.12 94.0534 40.12C92.2033 40.12 90.7034 38.5012 90.7034 36.5043C90.7034 34.5074 92.2033 32.8887 94.0534 32.8887C95.9036 32.8887 97.4034 34.5074 97.4034 36.5043Z" fill="#151917"/>
    <path fill-rule="evenodd" clip-rule="evenodd" d="M87.1573 36.5035C87.1573 39.7887 84.489 42.4519 81.1975 42.4519C77.906 42.4519 75.2377 39.7887 75.2377 36.5035C75.2377 33.2184 77.906 30.5552 81.1975 30.5552C84.489 30.5552 87.1573 33.2184 87.1573 36.5035ZM84.5089 36.5043C84.5089 38.5012 83.0091 40.12 81.1589 40.12C79.3088 40.12 77.809 38.5012 77.809 36.5043C77.809 34.5074 79.3088 32.8887 81.1589 32.8887C83.0091 32.8887 84.5089 34.5074 84.5089 36.5043Z" fill="#151917"/>
    <path fill-rule="evenodd" clip-rule="evenodd" d="M65.8083 32.4414H73.6769L73.599 34.9296H65.8083V32.4414Z" fill="#151917"/>
    <path fill-rule="evenodd" clip-rule="evenodd" d="M65.6914 42.4722C70.8752 42.5188 75.1989 38.8704 74.3343 32.5341C74.3343 32.5032 74.3341 32.4722 74.3339 32.4414H72.0365C72.0553 32.7059 72.0618 32.9781 72.0556 33.2578C72.061 37.7833 69.4492 39.906 65.7704 39.906C62.0916 39.906 59.1094 36.9295 59.1094 33.2578C59.1094 29.5861 62.0916 26.6096 65.7704 26.6096C67.6106 26.6096 69.2055 27.2377 70.3285 28.3835L72.1284 26.5871C70.5968 24.9733 68.3564 24.0439 65.6914 24.0439C60.5927 24.0439 56.4595 28.1693 56.4595 33.2581C56.4595 38.3469 60.5927 42.4649 65.6914 42.4722Z" fill="#151917"/>
    <path fill-rule="evenodd" clip-rule="evenodd" d="M41.8456 24.2745C44.2994 25.6707 44.2994 29.2074 41.8456 30.6036L19.1113 43.5389C16.6841 44.9199 13.6698 43.1669 13.6698 40.3743L13.6698 14.5042C13.6698 11.7117 16.684 9.95871 19.1112 11.3397L41.8456 24.2745Z" fill="url(#paint0_linear_54_714)"/>
    <mask id="mask0_54_714" style="mask-type:luminance" maskUnits="userSpaceOnUse" x="13" y="10" width="31" height="35">
        <path fill-rule="evenodd" clip-rule="evenodd" d="M41.8456 24.2745C44.2994 25.6707 44.2994 29.2074 41.8456 30.6036L19.1113 43.5389C16.6841 44.9199 13.6698 43.1669 13.6698 40.3743L13.6698 14.5042C13.6698 11.7117 16.684 9.95871 19.1112 11.3397L41.8456 24.2745Z" fill="white"/>
    </mask>
    <g mask="url(#mask0_54_714)">
        <path fill-rule="evenodd" clip-rule="evenodd" d="M13.645 9.75635L31.1445 27.1551L13.4189 45.2415L13.645 9.75635Z" fill="url(#paint1_linear_54_714)"/>
        <path fill-rule="evenodd" clip-rule="evenodd" d="M10.047 6.17432L31.1431 27.1599L37.4152 21.1744L10.047 6.17432Z" fill="url(#paint2_linear_54_714)"/>
        <path fill-rule="evenodd" clip-rule="evenodd" d="M31.1452 27.1562L40.7472 36.8378L12.0623 46.5193L31.1452 27.1562Z" fill="url(#paint3_linear_54_714)"/>
    </g>
    <defs>
        <linearGradient id="paint0_linear_54_714" x1="45.395" y1="20.552" x2="33.0499" y2="20.552" gradientUnits="userSpaceOnUse">
            <stop stop-color="#FBDA09"/>
            <stop offset="1" stop-color="#FFBC00"/>
        </linearGradient>
        <linearGradient id="paint1_linear_54_714" x1="15.1377" y1="42.8032" x2="28.1307" y2="40.9872" gradientUnits="userSpaceOnUse">
            <stop stop-color="#01E2FF"/>
            <stop offset="1" stop-color="#01C4FF"/>
        </linearGradient>
        <linearGradient id="paint2_linear_54_714" x1="6.9055" y1="17.0599" x2="19.7839" y2="33.8499" gradientUnits="userSpaceOnUse">
            <stop stop-color="#28D781"/>
            <stop offset="1" stop-color="#02F076"/>
        </linearGradient>
        <linearGradient id="paint3_linear_54_714" x1="22.851" y1="24.2983" x2="11.8455" y2="42.976" gradientUnits="userSpaceOnUse">
            <stop stop-color="#F2414E"/>
            <stop offset="1" stop-color="#E02554"/>
        </linearGradient>
    </defs>
</svg>

<svg xmlns="http://www.w3.org/2000/svg" width="187" height="55" fill="none"><rect width="186.154" height="55" fill="#fff" rx="5.78"/><path fill="#151917" fill-rule="evenodd" d="M103.154 13.774a4.507 4.507 0 1 1-9.013 0 4.507 4.507 0 1 1 9.013 0m-1.376 0a3.13 3.13 0 1 1-6.26.001 3.13 3.13 0 0 1 6.26 0M71.733 9.642h-5.008v8.39h5.007v-1.001h-3.63v-2.756h3.254v-1.002h-3.254v-2.63h3.63zM78.743 9.642H73.11v1.002h2.129v7.388h1.377v-7.388h2.127zM91.012 9.642h-5.634v1.002h2.13v7.388h1.377v-7.388h2.127z" clip-rule="evenodd"/><path fill="#151917" d="M82.748 9.642h1.378v8.39h-1.378z"/><path fill="#151917" fill-rule="evenodd" d="M104.281 9.642h1.6269999999999998l3.756 6.14v-6.14h1.377v8.39h-1.377l-4.005-6.546v6.546h-1.378zM61.565 13.42h3.77l-.037 1.194h-3.733z" clip-rule="evenodd"/><path fill="#151917" fill-rule="evenodd" d="M61.51 18.232c2.483.022 4.555-1.728 4.14-4.768v-.044h-1.1q.013.19.009.392c.002 2.171-1.25 3.19-3.012 3.19a3.19 3.19 0 1 1 0-6.38c.882 0 1.646.302 2.184.852l.863-.862c-.734-.775-1.808-1.22-3.085-1.22a4.42 4.42 0 0 0-4.424 4.42 4.424 4.424 0 0 0 4.424 4.42M142.3 24.67h-7.097v10.777h7.097s4.086-.696 4.086-5.389-4.086-5.389-4.086-5.389m-.901 2.606h-4.818v5.784h4.818s2.192 0 2.192-2.892-2.192-2.892-2.192-2.892" clip-rule="evenodd"/><path fill="#151917" d="M134.576 24.669h2.505v17.532h-2.505zM147.847 24.669h2.505v17.532h-2.505z"/><path fill="#151917" fill-rule="evenodd" d="M157.039 30.556c-3.502 0-4.669 2.406-4.669 2.406l2.086 1.233s.503-1.233 2.783-1.233c1.66 0 2.213 1.255 2.391 1.937v.514c-.727-.354-2.301-.91-4.548-.576-3.048.453-2.987 3.21-2.977 3.645l.001.042c0 .246.002 3.887 3.991 3.638 1.741-.109 2.844-.645 3.533-1.214v1.249h2.505v-7.64h-.001c-.007-1.025-.761-4.001-5.095-4.001m-2.577 8.048c.167-2.71 4.991-1.41 4.991-1.41s.064.286.064.897c-.428 1.922-5.223 3.224-5.055.513M168.083 38.563l-3.212-7.631h-2.503l4.464 10.606-2.336 5.548H167l6.774-16.094h-2.504zM123.676 30.555c4.197 0 5.295 4.474 5.295 4.474l-7.919 3.274s.512 1.81 2.893 1.823c1.864.009 2.916-1.653 2.916-1.653l2.009 1.36s-1.621 2.624-4.941 2.624c-4.08 0-5.877-3.57-5.877-5.887 0-2.233 1.426-6.015 5.624-6.015m-.241 2.31c1.528-.28 2.524 1.237 2.524 1.237l-5.349 2.184s-.407-2.83 2.825-3.42" clip-rule="evenodd"/><path fill="#151917" d="M114.296 24.669h2.65v17.495h-2.65z"/><path fill="#151917" fill-rule="evenodd" d="M110.057 32.027v-1.092l2.449.022v11.039c0 2.82-1.679 5.797-5.631 5.797s-5.228-3.502-5.228-3.502l2.249-.947s.686 2.16 3.096 2.16c2.745 0 3.066-2.499 3.066-3.354v-1.198s-.95 1.487-3.309 1.487c-2.558 0-5.597-2.192-5.597-5.93s2.862-5.874 5.626-5.952c2.215-.062 3.279 1.47 3.279 1.47m.134 4.515c0 2.018-1.447 3.654-3.233 3.654s-3.233-1.636-3.233-3.654c0-2.019 1.447-3.655 3.233-3.655s3.233 1.636 3.233 3.655M100.052 36.504c0 3.285-2.669 5.948-5.96 5.948a5.954 5.954 0 0 1-5.96-5.948 5.954 5.954 0 0 1 5.96-5.949c3.291 0 5.96 2.663 5.96 5.949m-2.649 0c0 1.997-1.5 3.616-3.35 3.616s-3.35-1.619-3.35-3.616 1.5-3.615 3.35-3.615 3.35 1.618 3.35 3.615M87.157 36.504a5.954 5.954 0 0 1-5.96 5.948 5.954 5.954 0 0 1-5.96-5.948 5.954 5.954 0 0 1 5.96-5.949 5.954 5.954 0 0 1 5.96 5.949m-2.648 0c0 1.997-1.5 3.616-3.35 3.616s-3.35-1.619-3.35-3.616 1.5-3.615 3.35-3.615 3.35 1.618 3.35 3.615M65.808 32.441h7.869l-.078 2.489h-7.79z" clip-rule="evenodd"/><path fill="#151917" fill-rule="evenodd" d="M65.691 42.472c5.184.047 9.508-3.602 8.643-9.938v-.093h-2.297q.028.397.019.817c.005 4.525-2.607 6.648-6.286 6.648s-6.66-2.977-6.66-6.648c0-3.672 2.982-6.648 6.66-6.648 1.84 0 3.436.628 4.559 1.774l1.8-1.797c-1.532-1.614-3.773-2.543-6.438-2.543-5.098 0-9.232 4.125-9.232 9.214s4.134 9.207 9.232 9.214" clip-rule="evenodd"/><path fill="url(#a)" fill-rule="evenodd" d="M41.846 24.275c2.453 1.396 2.453 4.932 0 6.329L19.11 43.539c-2.427 1.38-5.441-.372-5.441-3.165v-25.87c0-2.792 3.014-4.545 5.441-3.164z" clip-rule="evenodd"/><mask id="b" width="31" height="35" x="13" y="10" maskUnits="userSpaceOnUse" style="mask-type:luminance"><path fill="#fff" fill-rule="evenodd" d="M41.846 24.275c2.453 1.396 2.453 4.932 0 6.329L19.11 43.539c-2.427 1.38-5.441-.372-5.441-3.165v-25.87c0-2.792 3.014-4.545 5.441-3.164z" clip-rule="evenodd"/></mask><g fill-rule="evenodd" clip-rule="evenodd" mask="url(#b)"><path fill="url(#c)" d="m13.645 9.756 17.5 17.4-17.726 18.086z"/><path fill="url(#d)" d="M10.047 6.174 31.143 27.16l6.272-5.986z"/><path fill="url(#e)" d="m31.145 27.156 9.602 9.682-28.685 9.681z"/></g><defs><linearGradient id="a" x1="45.395" x2="33.05" y1="20.552" y2="20.552" gradientUnits="userSpaceOnUse"><stop stop-color="#FBDA09"/><stop offset="1" stop-color="#FFBC00"/></linearGradient><linearGradient id="c" x1="15.138" x2="28.131" y1="42.803" y2="40.987" gradientUnits="userSpaceOnUse"><stop stop-color="#01E2FF"/><stop offset="1" stop-color="#01C4FF"/></linearGradient><linearGradient id="d" x1="6.905" x2="19.784" y1="17.06" y2="33.85" gradientUnits="userSpaceOnUse"><stop stop-color="#28D781"/><stop offset="1" stop-color="#02F076"/></linearGradient><linearGradient id="e" x1="22.851" x2="11.845" y1="24.298" y2="42.976" gradientUnits="userSpaceOnUse"><stop stop-color="#F2414E"/><stop offset="1" stop-color="#E02554"/></linearGradient></defs></svg>
